X: 1
T: Apalachicola Waltz
R: waltz
S: Glen Weiser message 2020-6-26
O:
Z: 2022 John Chambers <jc:trillian.mit.edu>
M: 3/4
L: 1/8
K: D
"^A"[|] DE |\
"D"F2 FE FG | "D7"A4 dc | "G"B3 G B{c}d | "D"A4 G2 ||\
"D"F2 FE FG | A2 G2 F2 | "Em"E2 B2 {G}d2 | "A"c3 {A}B AG ||\
"D"F2 FE FG | "D7"A4 dc | "G"B3 G B{c}d | "D"A4 de ||\
"D"f2 d2 fg | "A7"e4 dc | "G"d4 dc | "D"d4 "^B":: de |\
"D"f2 d2 fg | "A"ec A2 A{B}c | "G"dB G3 F | "D"A4 de ||\
"D"f2 fe fg | a2 g2 f2 | "Em"e3 d cB | "A7"A4 ag ||\
"D"f2 d2 fg | "A"ec A2 A{B}c | "G"dB G3 F | "D"A4 de ||\
"D"f2 d2 fg | "A7"e4 dc | "G"d4 dc | "D"d4 :|
